X:1
T:Agnus Dei
T:Agnus Dei
T:Giovanni Battista Casali
C:Giovanni Battista Casali
%%score [ 1 2 3 4 ]
L:1/8
M:4/4
K:G
V:1 treble nm="S."
V:2 treble nm="A."
V:3 treble-8 nm="T."
V:4 bass nm="B."
V:1
 z4 G2 A2 | B2 F F G2 A A | B2 A2 B4 | A4 dc BA | B2 B2 A2 d2- | d2 ^c2 d4 :| d3 d B2 G G | %7
w: A- gnus|De- i, qui tol- lis pec-|ca- ta mun-|di, mi- * se- *|re- re no- *|* * bis.|A- gnus De- , qui-|
 A2 A A c2 c c | B2 d2 c4 | B2 d4 c2 | c2 B2 A2 B2 | A4 B4 | B2 B2 c2"^rit.\n" d2 | c8 | B8 |] %15
w: tol- lis pec- ca- ta, pec-|ca- ta mun-|di, do- na|no- bis pa- *|* cem,|do- na no- bis|pa-|cem.|
V:2
 G2 F2 G2 D D | G2 D D G2 D D | G2 A2 G4 | F4 z4 | G2 G2 G2 FG | A4 F4 :| z4 G3 G | D2 F F G2 A A | %8
w: A- gnus De- i, qui|tol- lis pec- ca- ta, pec-|ca- ta mun-|di,|mi- se- re- re _|no- bis.|A- gnus|De- i, qui tol- lis pec-|
 B2 G4 F2 | G4 G2 E2 | A2 G2 F2 G2- | G2 F2 G2 G2- | G2 G2 G2 G2 | G8 | G8 |] %15
w: ca- ta mun-|di, do- na|no- bis pa- *|* * cem, do-|* na no- bis|pa-|cem.|
V:3
 B2 c2 d2 d d | d2 d d d4 | d4 d4 | d4 z4 | d2 e2 e2 f2 | e4 d4 :| z4 d3 B | A2 d d c2 A A | %8
w: A- gnus De- i, qui|tol- lis pec- ca-|ta mun-|di,|mi- se- re- re|no- bis.|A- gnus|De- i, qui tol- lis pec-|
 d2 d2 e2 c2 | d4 e2 e2 | d2 d2 d4- | d4 d4 | d2 d2 e2 d2 | e8 | d8 |] %15
w: ca- ta mun- *|di, do- na|no- bis pa-|* cem,|do- na no- bis|pa-|cem.|
V:4
 G,2 A,2 B,2 F, F, | G,2 A, A, B,2 F, F, | G,2 F,2 G,4 | D,4 z4 | G,F, E,D, ^C,2 D,2 | A,,4 D,4 :| %6
w: A- gnus De- i, qui|tl- lis pec- ca- ta, pec-|ca- ta mun-|di,|mi- * se- * re- re|no- bis.|
 z4 G,3 G, | F,2 D, D, E,2 F, F, | G,2 B,2 A,4 | G,4 E,2 A,2 | F,2 G,2 D,4- | D,4 G,4 | %12
w: A- gnus|De- i, qui tol- lis pec-|ca- ta mun-|di, do- na|no- bis pa-|* cem,|
 G,2 G,2 C2 B,2 | C8 | G,8 |] %15
w: do- na no- bis|pa-|cem.|

